Yaru++/actions/16/insert-text.svg

<svg height="16" width="16" xmlns="http://www.w3.org/2000/svg">
  <path d="m10 1v1h1c.583 0 .737.217.865.473.128.255.135.527.135.527v10s-.007.272-.135.527c-.128.256-.282.473-.865.473h-1v1h1c.727 0 1.19-.353 1.5-.738.31.385.773.738 1.5.738h1v-1h-1c-.583 0-.737-.217-.865-.473a1.404 1.404 0 0 1 -.135-.527v-10s.007-.272.135-.527c.128-.256.282-.473.865-.473h1v-1h-1c-.727 0-1.19.353-1.5.738-.31-.385-.773-.738-1.5-.738zm-5.563 2-3.561 9.281h-.876v.719h2.813v-.719h-1.095l.843-2.187h4.189l.844 2.187h-1.094v.719h3.625v-.719h-1l-3.563-9.281zm.22 1.625 1.843 4.75h-3.656z" fill="#808080" fill-rule="evenodd"/>
</svg>

<svg height="16" width="16" xmlns="http://www.w3.org/2000/svg">
    <path d="M10 1v1h1c.583 0 .737.217.865.473A1.4 1.4 0 0112 3v10s-.007.272-.135.527c-.128.256-.282.473-.865.473h-1v1h1c.727 0 1.19-.353 1.5-.738.31.385.773.738 1.5.738h1v-1h-1c-.583 0-.737-.217-.865-.473A1.404 1.404 0 0113 13V3s.007-.272.135-.527C13.263 2.217 13.417 2 14 2h1V1h-1c-.727 0-1.19.353-1.5.738C12.19 1.353 11.727 1 11 1zM4.437 3L.876 12.281H0V13h2.813v-.719H1.718l.843-2.187H6.75l.844 2.187H6.5V13h3.625v-.719h-1L5.562 3zm.22 1.625L6.5 9.375H2.844z" style="line-height:normal;font-variant-ligatures:normal;font-variant-position:normal;font-variant-caps:normal;font-variant-numeric:normal;font-variant-alternates:normal;font-feature-settings:normal;text-indent:0;text-align:start;text-decoration-line:none;text-decoration-style:solid;text-decoration-color:#000;text-transform:none;text-orientation:mixed;shape-padding:0;isolation:auto;mix-blend-mode:normal" color="#000" font-weight="400" font-family="sans-serif" overflow="visible" fill="gray" fill-rule="evenodd"/>
</svg>
